X:1
T:Madonna, io vivo
T:Eliseo Ghibel
T:Source :  Primo libro de Madrigali a tre voci---Venetia---A.Gardano---1552. (First publication : Venetia---G.Scotto---1551) Editor : André Vierendeels : (11/11/17). Notes : Original clefs : C3, C4, F4 Editorial accidentals above the staff
T:Madonna, io vivo
T:©
T:©
T:©
T:©
T:©
T:©
C:Eliseo Ghibel
Z:©
%%score [ 1 2 3 ]
L:1/8
Q:1/4=99
M:4/4
K:F
V:1 treble-8 nm="Tenor 1" snm="T 1"
V:2 treble-8 nm="Tenor 2" snm="T 2"
V:3 bass nm="Bass" snm="B"
V:1
 c8- | c8 | d8 | c8 | z4 c4 | d4 e4 | f2 _e4 d2- | d2 c4 B2 | A2 G2 A2 d2- | d2 c4 B2 | c8 | %11
w: Ma-||don-|na,|io|vi- vo|dir il sde-|* gno e|ta- * * *||le,|
 z4 c4 | d2 d4 d2 | d4 c4 | c4 z4 | z4 c4 | d2 e2 f2 d2 | c4 z4 | z2 c2 c2 d2 | e3 f g4 | %20
w: che|la cru- del-|ta vo-|stra|a|dis- pet- to d'a-|mor,|a dis- pet-|to d'a- mor,|
 z2 c2 d2 e2 | f2 d2 c4 | z2 c2 d2 e2 | f4 e4 | z2 e2 f4 | f2 f4 e2 | d4 e2 fe | dcBA B2 d2- | %28
w: a dis- pet-|to d'a- mor|vol ch'io pa-|le- se,|a chiun-|que mai non|la pro- vo _|_ _ _ _ _ ne|
 dc c4 B2 | c8 | z8 | e8 | f8- | f4 e4 | e8- | e4 d4 | d8 | c8- | c4 B4- | B4 A4 | G8 | A8 | %42
w: _ in- te- *|se,||per-|ho|_ ma-|donn'|_ al|ho-|nor|_ tuo|_ pro-|ve-|di,|
 z4 z2 A2 | c2 G2 A2 F2 | G8- | G4 c4 | d8- | d4 c4 | B8- | B8 | A8- | A8 | d8 | c6 B2 | %54
w: et|di- ven- ta ver|me|_ pie-|to-|* sa'e'hu-|mi-||le,|_|pie-|to- sa|
 A2 G2 G4- | G4 F2 E2 | F8 | G8- | G8 | A4 G4 | F4 E4 | D2 d4 c2- | c2 A4 B2 | G8 | A8 | G8 | %66
w: _ _ e'hu-|* * mi-|le,|ch'io|_|ver voi|in bon|mu- te- ro'il|_ tri- sto|sti-|le,|ch'io|
 A4 G4 | F4 E4 | D2 d4 c2- | c2 A4 B2 | G8 | F4 z2 A2 | B2 c2 d4 | c8 |] %74
w: ver voi|in bon|mu- te- ro'il|_ tri- sto|sti-|le, il|tri- sto sti-|le.|
V:2
 A8- | A8 | B8 | G8- | G4 z2 A2- | A2 B4 c2 | c2 B2 B2 B2 | A4 G4 | z2 c3 B A2- | A2 G4 F2 | G8 | %11
w: Ma-||don-|na,|_ io|_ vi- vo|dir il sde- gn'e-|ta- le|il _ sde-|* gn'e- ta-|le,|
 z4 A4 | B2 B4 B2 | B4 G4 | A2 c2 B2 G2 | A2 F2 G2 A2 | B2 G2 F4 | z4 G4 | F2 G2 A3 B | c4 z2 G2 | %20
w: che|la cru- del-|ta vo-|stra a dis- pet-|to, a dis- pet-|to d'a- mor,|a|dis- pet- to d'a-|mor, a|
 B2 A2 B2 G2 | A2 B2 G2 G2- | G2 A3 G c2- |"^-natural" c2 B2 c4 | z2 c2 c4 | c2 c4 c2- | %26
w: dis- pet- to d'a-|mor vol ch'io pa-|* le- * *|* * se,|a chiun-|que mai non|
"^-natural""^-natural" c2 BA B2 c2 | A2 d3 c B2 | A3 G F4 | G8 | z8 | c8 | d8 | c8- | c4 B4 | B8- | %36
w: _ _ _ la pro-|vo ne _ _|in- * te-|se,||per-|ho|ma-|* don-|n'al|
 B4 A4- | A4 A4 | G4 G4- | G2 F2 F4- | F2 ED E4 | F4 z2 A2 | B2 G2 A2 F2 | G2 c2 c2 B2 | c4 c4 | %45
w: _ ho-|* nor|tuo pro-|* * ve-||di, et|di- ven- ta ver|me, et di ven-|ta ver|
 B4 A4 | B8- | B4 A4 | G8- | G8 | ^F8- | F8 | B8 | G8 | A4 B4 | c8- | c8 | =B8 | z8 | z2 c4 B2- | %60
w: me pie-|to-|* sa'e'hu-|mi-||le,|_|pie-|to-|sa e'hu-|mi-||le,||ch'io ver|
 B2 A4 G2- | G2 F4 E2 | G2 F2 F4- | F2 ED E4 | F8 | E8 | z2 c4 B2- | B2 A4 G2- | G2 F4 E2 | %69
w: _ voi in|_ bon mu-|te- ro'il tri-|* * * sto|sti-|le,|ch'io ver|_ voi in|_ bon mu-|
 G2 F2 F4- | F2 ED E4 | F4 z2 c2 | d2 c2 B4 | A8 |] %74
w: te- ro'il tri-|* sto _ sti-|le, il|tri- sto sti-|le.|
V:3
 F,8- | F,8 | B,,8 | C,8- | C,4 z2 F,2- | F,2 G,4 A,2 | A,2 G,2 G,2 G,2 | F,4 _E,2 E,2 | F,6 F,2 | %9
w: Ma-||don-|na,|_ io|_ vi- vo|dir il sde- gn'e-|ta- le, in|vi vi|
"^-natural" F,2 E,2 D,2 D,2 | C,8 | F,,4 z2 F,2 | B,,2 B,,4 B,,2 | B,,4 C,4 | F,2 C,2 D,2 E,2 | %15
w: dir il sde- gn'e-|ta-|le, che|la cru- del-|ta vo-|stra a dis- pet-|
 F,2 D,2 C,4 | z8 | C,8 | D,2 E,2 F,2 D,2 | C,2 C,3 D, E,F, | G,2 F,2 B,,2 C,2 | F,2 B,,2 C,4 | %22
w: to d'a- mor,||a|dis- pet- to d'a-|mor, a _ _ _|dis- pet- to d'a-|mor vol ch'io|
 C,2 F,3 E, E,D,/C,/ | D,4 C,4 | z2 C,2 F,4 | F,2 F,4 C,2 | G,6 F,2- | F,2 G,4 D,2 | F,3 E, D,4 | %29
w: pa- le- * * * *|* se,|a chiun-|que mai non|la pro-|* vo ne|in- * te-|
 C,8 | z8 | C8 | B,8 | A,8- | A,4 G,4 | G,8- | G,4 F,4- | F,4 F,4 | _E,4 E,4- | E,4 F,4 | C,8 | %41
w: se,||per-|ho|ma-|* don-|n'al|_ ho-|* nor|tuo pro-||ve-|
 F,,4 z2 F,2 | G,2 E,2 F,2 D,2 | C,2 E,2 F,2 D,2 | C,4 C,4 | _E,4 F,4 | B,,8- | B,,4 F,,4 | %48
w: di, et|di- ven- ta ver|me, et di- ven-|ta ver|me pie-|to-|* sa'e'hu-|
 G,,6 A,,2 | B,,4 C,4 | D,8- | D,8 | B,,8 | C,8- | C,4 B,,4 | A,,8 | A,,8 | G,,8 | z4 C,4 | %59
w: mi- *||le,|_|pie-|to-|* sa|e'hu-|mi-|le,|ch'io|
 F,4 _E,4 | D,4 C,4 | B,,6 C,2- | C,2 D,4 B,,2 | C,8 | F,,8 | z4 C,4 | F,4 _E,4 | D,4 C,4 | %68
w: ver voi'in|bon mu-|te- ro'il|_ tri- sto|sti-|le,|ch'io|ver voi'in|bon mu-|
 B,,6 C,2- | C,2 D,4 B,,2 | C,8 | D,6 C,2 | B,,2 A,,2 B,,4 | F,,8 |] %74
w: te- ro'il|_ tri- sto|sti-|le, il|tri- sto sti-|le.|

